src/static/wallet.svg

<svg
  width="25"
  height="24"
  viewBox="0 0 25 24"
  fill="none"
  xmlns="http://www.w3.org/2000/svg"
>
  <path
    fill-rule="evenodd"
    clip-rule="evenodd"
    d="M2.5 7C2.5 4.79086 4.29086 3 6.5 3H18.5C20.7091 3 22.5 4.79086 22.5 7V8.5H18.5C16.567 8.5 15 10.067 15 12C15 13.933 16.567 15.5 18.5 15.5H22.5V17C22.5 19.2091 20.7091 21 18.5 21H6.5C4.29086 21 2.5 19.2091 2.5 17V7ZM18.5 14H22.5V10H18.5C17.3954 10 16.5 10.8954 16.5 12C16.5 13.1046 17.3954 14 18.5 14Z"
    fill="#191C20"
  />
</svg>

<svg xmlns="http://www.w3.org/2000/svg" width="25" height="24" fill="none"><path fill="#191C20" fill-rule="evenodd" d="M2.5 7a4 4 0 0 1 4-4h12a4 4 0 0 1 4 4v1.5h-4a3.5 3.5 0 1 0 0 7h4V17a4 4 0 0 1-4 4h-12a4 4 0 0 1-4-4V7Zm16 7h4v-4h-4a2 2 0 1 0 0 4Z" clip-rule="evenodd"/></svg>
